src/gen3-ui-component/images/icons/eye-close.svg

<?xml version="1.0" encoding="UTF-8"?>
<svg width="14px" height="14px" viewBox="0 0 14 14" version="1.1" xmlns="http://www.w3.org/2000/svg" xmlns:xlink="http://www.w3.org/1999/xlink">
    <!-- Generator: Sketch 52.2 (67145) - http://www.bohemiancoding.com/sketch -->
    <title>closeeye</title>
    <desc>Created with Sketch.</desc>
    <g id="Page-1" stroke="none" stroke-width="1" fill="none" fill-rule="evenodd">
        <g id="icon_eye_close" fill="#4A4A4A">
            <g id="Group" transform="translate(0.000000, -0.000000)">
                <g id="Group-11">
                    <g id="Group-3">
                        <g id="Group-7">
                            <g id="closeeye">
                                <g id="blind">
                                    <path d="M1.91835478,9.14584795 C2.14576608,9.37317739 2.51437817,9.37312281 2.7417076,9.1457115 C2.96903704,8.91830019 2.96898246,8.54968811 2.74157115,8.32235867 L1.40562183,6.98687329 L3.4251423,4.96735283 C4.64415205,3.74834308 6.37466667,3.25165692 8.03073294,3.60059259 C8.34536452,3.66688109 8.65415595,3.46555945 8.72044444,3.15092788 C8.78673294,2.8362963 8.58541131,2.52750487 8.27077973,2.46121637 C6.23354776,2.0319922 4.10202729,2.64373489 2.60176218,4.144 L0.170510721,6.57525146 C-0.0568732943,6.80263548 -0.0568460039,7.17132943 0.170592593,7.39865887 L1.91835478,9.14584795 Z" id="Path"></path>
                                    <path d="M13.8026901,6.57462378 L12.0549279,4.82746199 C11.8275166,4.60013255 11.4589045,4.60018713 11.231575,4.82759844 C11.0042456,5.05500975 11.0043002,5.42362183 11.2317115,5.65095127 L12.5676608,6.98643665 L10.5481404,9.00595712 C9.3291306,10.2249942 7.59861598,10.721653 5.94254971,10.3727173 C5.62791813,10.3064288 5.31912671,10.5077505 5.25283821,10.8223821 C5.18654971,11.1370136 5.38787135,11.4458051 5.70250292,11.5120936 C7.73973489,11.9413177 9.87125536,11.329575 11.3715205,9.82930994 L13.8027719,7.39805848 C14.0301559,7.17064717 14.0301287,6.80195322 13.8026901,6.57462378 Z" id="Path"></path>
                                    <path d="M4.07566472,6.98665497 C4.07566472,7.30819103 4.33631579,7.56884211 4.65785185,7.56884211 C4.97938791,7.56884211 5.24003899,7.30819103 5.24003899,6.98665497 C5.24003899,6.02212865 6.02210136,5.24006628 6.98662768,5.24006628 C7.30816374,5.24006628 7.56881481,4.9794152 7.56881481,4.65787914 C7.56881481,4.33634308 7.30816374,4.07569201 6.98662768,4.07569201 C5.37902924,4.07566472 4.07566472,5.37902924 4.07566472,6.98665497 Z" id="Path"></path>
                                    <path d="M8.73324366,6.98665497 C8.73324366,7.95118129 7.95118129,8.73324366 6.98665497,8.73324366 C6.66511891,8.73324366 6.40446784,8.99389474 6.40446784,9.3154308 C6.40446784,9.63696686 6.66511891,9.89761793 6.98665497,9.89761793 C8.59425341,9.89761793 9.89764522,8.59425341 9.89764522,6.98662768 C9.89764522,6.66509162 9.63699415,6.40444055 9.31545809,6.40444055 C8.99389474,6.40444055 8.73324366,6.66511891 8.73324366,6.98665497 Z" id="Path"></path>
                                    <path d="M13.8024717,0.170810916 C13.575115,-0.056545809 13.2064756,-0.056545809 12.9791189,0.170810916 L0.170810916,12.9791189 C-0.056545809,13.2064756 -0.056545809,13.575115 0.170810916,13.8024717 C0.398167641,14.0298285 0.766807018,14.0298285 0.994163743,13.8024717 L13.8024717,0.994163743 C14.0298558,0.766807018 14.0298558,0.398167641 13.8024717,0.170810916 Z" id="Path"></path>
                                </g>
                            </g>
                        </g>
                    </g>
                </g>
            </g>
        </g>
    </g>
</svg>

<svg width="14" height="14" xmlns="http://www.w3.org/2000/svg"><g fill="#4A4A4A" fill-rule="evenodd"><path d="M1.918 9.146a.582.582 0 1 0 .824-.824L1.406 6.987l2.02-2.02A5.032 5.032 0 0 1 8.03 3.601a.582.582 0 1 0 .24-1.14A6.196 6.196 0 0 0 2.6 4.144L.172 6.575a.582.582 0 0 0 0 .824l1.747 1.747Zm11.885-2.571-1.748-1.748a.582.582 0 1 0-.823.824l1.336 1.335-2.02 2.02a5.032 5.032 0 0 1-4.605 1.367.582.582 0 1 0-.24 1.14 6.196 6.196 0 0 0 5.669-1.684l2.43-2.43a.582.582 0 0 0 0-.824Z"/><path d="M4.076 6.987a.582.582 0 1 0 1.164 0c0-.965.782-1.747 1.747-1.747a.582.582 0 1 0 0-1.164 2.911 2.911 0 0 0-2.911 2.91Zm4.657 0c0 .964-.782 1.746-1.746 1.746a.582.582 0 1 0 0 1.165 2.911 2.911 0 0 0 2.91-2.911.582.582 0 1 0-1.164 0ZM13.802.17a.582.582 0 0 0-.823 0L.171 12.98a.582.582 0 0 0 .823.822L13.802.994a.582.582 0 0 0 0-.823Z"/></g></svg>
